src/assets/svg/partners-3.svg

<svg width="148" height="33" viewBox="0 0 148 33" fill="none" xmlns="http://www.w3.org/2000/svg">
<path d="M49.1941 26.3043C47.3079 26.3043 45.6553 25.8781 44.2361 25.0256C42.8349 24.1731 41.7302 22.9963 40.9218 21.4952C40.1314 19.9756 39.7362 18.2243 39.7362 16.2413C39.7362 14.2584 40.1314 12.5164 40.9218 11.0152C41.7302 9.49564 42.8349 8.30955 44.2361 7.45707C45.6553 6.60458 47.3079 6.17834 49.1941 6.17834C51.0623 6.17834 52.706 6.60458 54.1252 7.45707C55.5443 8.30955 56.6491 9.49564 57.4394 11.0152C58.2299 12.5164 58.6251 14.2584 58.6251 16.2413C58.6251 18.2243 58.2299 19.9756 57.4394 21.4952C56.6491 22.9963 55.5443 24.1731 54.1252 25.0256C52.706 25.8781 51.0623 26.3043 49.1941 26.3043ZM49.1941 23.1075C50.9904 23.1075 52.4186 22.4959 53.4784 21.2729C54.5563 20.0497 55.0952 18.3725 55.0952 16.2413C55.0952 14.1102 54.5563 12.4329 53.4784 11.2098C52.4186 9.98668 50.9904 9.37515 49.1941 9.37515C47.3978 9.37515 45.9606 9.98668 44.8828 11.2098C43.805 12.4329 43.2661 14.1102 43.2661 16.2413C43.2661 18.3725 43.805 20.0497 44.8828 21.2729C45.9606 22.4959 47.3978 23.1075 49.1941 23.1075Z" fill="#969FA4"/>
<path d="M61.5895 32.0864V12.1828H64.6613L65.0385 14.1564C65.4697 13.5449 66.0355 13.0075 66.7362 12.5442C67.4547 12.0808 68.3798 11.8492 69.5115 11.8492C70.769 11.8492 71.8917 12.1642 72.8797 12.7943C73.8677 13.4244 74.6491 14.2862 75.224 15.3796C75.7989 16.473 76.0862 17.7146 76.0862 19.1046C76.0862 20.4944 75.7989 21.7361 75.224 22.8295C74.6491 23.9044 73.8677 24.7569 72.8797 25.387C71.8917 25.9985 70.769 26.3043 69.5115 26.3043C68.5055 26.3043 67.6254 26.1097 66.8708 25.7205C66.1164 25.3314 65.5056 24.7847 65.0385 24.0804V32.0864H61.5895ZM68.784 23.1909C69.8798 23.1909 70.787 22.811 71.5055 22.0512C72.2241 21.2913 72.5833 20.3092 72.5833 19.1046C72.5833 17.9 72.2241 16.9085 71.5055 16.1301C70.787 15.3518 69.8798 14.9626 68.784 14.9626C67.6702 14.9626 66.7541 15.3518 66.0355 16.1301C65.3349 16.89 64.9846 17.8722 64.9846 19.0767C64.9846 20.2813 65.3349 21.2729 66.0355 22.0512C66.7541 22.811 67.6702 23.1909 68.784 23.1909Z" fill="#969FA4"/>
<path d="M84.596 25.9707C83.1949 25.9707 82.0721 25.6186 81.2278 24.9144C80.3835 24.2101 79.9614 22.9593 79.9614 21.1616V15.1572H77.671V12.1828H79.9614L80.3655 8.4856H83.4104V12.1828H87.0211V15.1572H83.4104V21.1894C83.4104 21.8566 83.5451 22.3199 83.8146 22.5794C84.102 22.8203 84.587 22.9407 85.2697 22.9407H86.9403V25.9707H84.596Z" fill="#969FA4"/>
<path d="M91.8416 10.0423C91.213 10.0423 90.692 9.84768 90.2788 9.45856C89.8837 9.06935 89.686 8.57824 89.686 7.98522C89.686 7.39219 89.8837 6.91035 90.2788 6.5397C90.692 6.15053 91.213 5.95593 91.8416 5.95593C92.4704 5.95593 92.9823 6.15053 93.3778 6.5397C93.791 6.91035 93.9977 7.39219 93.9977 7.98522C93.9977 8.57824 93.791 9.06935 93.3778 9.45856C92.9823 9.84768 92.4704 10.0423 91.8416 10.0423ZM90.1171 25.9707V12.1828H93.5658V25.9707H90.1171Z" fill="#969FA4"/>
<path d="M97.1662 25.9707V12.1828H100.211L100.508 14.0453C100.939 13.3781 101.505 12.8499 102.205 12.4607C102.923 12.053 103.75 11.8492 104.684 11.8492C106.75 11.8492 108.214 12.6739 109.076 14.3232C109.561 13.5634 110.208 12.9611 111.016 12.5163C111.842 12.0716 112.741 11.8492 113.711 11.8492C115.453 11.8492 116.792 12.3866 117.726 13.4615C118.66 14.5363 119.127 16.1116 119.127 18.1872V25.9707H115.677V18.5207C115.677 17.3347 115.453 16.4267 115.004 15.7965C114.573 15.1664 113.9 14.8514 112.984 14.8514C112.049 14.8514 111.295 15.2035 110.72 15.9077C110.163 16.6119 109.885 17.5942 109.885 18.8543V25.9707H106.435V18.5207C106.435 17.3347 106.211 16.4267 105.761 15.7965C105.313 15.1664 104.621 14.8514 103.687 14.8514C102.771 14.8514 102.025 15.2035 101.451 15.9077C100.894 16.6119 100.615 17.5942 100.615 18.8543V25.9707H97.1662Z" fill="#969FA4"/>
<path d="M128.895 26.3043C127.548 26.3043 126.354 26.0078 125.311 25.4147C124.27 24.8218 123.452 23.9878 122.86 22.9129C122.267 21.838 121.971 20.5963 121.971 19.1879C121.971 17.761 122.257 16.4915 122.833 15.3796C123.425 14.2676 124.233 13.4059 125.257 12.7943C126.3 12.1642 127.521 11.8492 128.922 11.8492C130.233 11.8492 131.392 12.1457 132.399 12.7388C133.404 13.3317 134.186 14.1472 134.742 15.185C135.318 16.2042 135.604 17.344 135.604 18.6042C135.604 18.808 135.596 19.0211 135.578 19.2435C135.578 19.466 135.569 19.6976 135.551 19.9385H125.392C125.464 21.0134 125.823 21.8566 126.47 22.4681C127.135 23.0797 127.934 23.3855 128.868 23.3855C129.569 23.3855 130.152 23.228 130.62 22.9129C131.105 22.5794 131.464 22.1531 131.698 21.6342H135.2C134.949 22.5052 134.527 23.3021 133.934 24.0249C133.359 24.7291 132.641 25.285 131.779 25.6928C130.934 26.1005 129.973 26.3043 128.895 26.3043ZM128.922 14.7402C128.078 14.7402 127.332 14.9904 126.686 15.4908C126.039 15.9726 125.626 16.7139 125.446 17.7146H132.102C132.048 16.8065 131.725 16.0838 131.132 15.5463C130.539 15.0089 129.802 14.7402 128.922 14.7402Z" fill="#969FA4"/>
<path d="M138.506 25.9707V12.1828H141.577L141.9 14.768C142.385 13.8785 143.042 13.1743 143.868 12.6553C144.712 12.1179 145.7 11.8492 146.832 11.8492V15.6019H145.862C145.107 15.6019 144.434 15.7224 143.841 15.9633C143.248 16.2042 142.781 16.6213 142.439 17.2142C142.116 17.8073 141.954 18.632 141.954 19.6883V25.9707H138.506Z" fill="#969FA4"/>
<path d="M29.8987 8.33888L11.8205 27.2307C11.7042 27.3523 11.5008 27.2673 11.5029 27.0979L11.6198 17.8205C11.6206 17.7519 11.6584 17.6893 11.7182 17.6573L29.6796 8.04296C29.8657 7.94336 30.0452 8.18581 29.8987 8.33888Z" fill="#969FA4" fill-opacity="0.8"/>
<path d="M30.7687 6.8269L30.5299 7.16953L10.0003 18.2756L2.50499 13.3C2.3301 13.1786 2.3777 12.9009 2.58993 12.8613L30.7687 6.8269Z" fill="#969FA4"/>
<path fill-rule="evenodd" clip-rule="evenodd" d="M31.0767 6.62102C31.1603 6.74972 31.1576 6.91716 31.0699 7.04301L30.831 7.38564C30.7978 7.43331 30.754 7.47247 30.7032 7.49996L10.1736 18.6061C10.0544 18.6705 9.90985 18.664 9.79676 18.5889L2.30143 13.6134C2.29926 13.6119 2.29711 13.6105 2.29496 13.609C1.87546 13.3176 1.95432 12.6035 2.5165 12.4941L30.6914 6.46051C30.8402 6.42864 30.9931 6.49233 31.0767 6.62102ZM2.97119 13.1624L10.0188 17.8406L28.9503 7.59901L2.97119 13.1624Z" fill="#969FA4"/>
<path fill-rule="evenodd" clip-rule="evenodd" d="M31.1174 6.94901C31.1773 6.77368 31.1016 6.58027 30.9392 6.49434C30.7769 6.4084 30.5769 6.45585 30.4691 6.60587L30.2802 6.86865L9.71873 18.2069C9.57743 18.2848 9.50213 18.4462 9.53228 18.6062L11.1229 27.0316C11.1539 27.1955 11.2881 27.3189 11.4522 27.3342C11.6162 27.3495 11.7705 27.2529 11.8305 27.0976L14.2719 20.7677L30.7925 7.7142C30.8488 7.66977 30.8911 7.60983 30.9145 7.54158L31.1174 6.94901Z" fill="url(#paint0_linear_2_746)"/>
<path d="M30.7678 6.82629L24.5891 26.8507C24.5413 26.9991 24.3615 27.0651 24.2296 26.9827L16.1945 21.9468L14.4876 20.7826L30.2587 7.50412C30.455 7.33892 30.6153 7.13434 30.7296 6.90331L30.7678 6.82629Z" fill="#969FA4"/>
<path fill-rule="evenodd" clip-rule="evenodd" d="M30.9067 6.47899C31.0853 6.55206 31.1787 6.75178 31.1212 6.93802L24.9425 26.9624L24.9411 26.9669C24.8181 27.3485 24.3693 27.5096 24.0361 27.3016L16.0004 22.2653C15.9963 22.2627 15.9923 22.2601 15.9884 22.2575L14.2816 21.0932C14.1849 21.0273 14.1246 20.9193 14.1188 20.8014C14.1129 20.6836 14.1621 20.5699 14.2517 20.4945L30.0229 7.21606C30.1798 7.08389 30.3081 6.92024 30.3996 6.73541L30.4377 6.6584C30.524 6.48398 30.7281 6.40591 30.9067 6.47899ZM29.938 8.26161L15.1039 20.7511L16.3955 21.6321L24.2864 26.5776L29.938 8.26161Z" fill="#969FA4"/>
<defs>
<linearGradient id="paint0_linear_2_746" x1="24.3569" y1="3.28244" x2="11.9016" y2="30.4229" gradientUnits="userSpaceOnUse">
<stop offset="0.0001" stop-color="#ABB3B7"/>
<stop offset="1" stop-color="#BBD3DF"/>
</linearGradient>
</defs>
</svg>

<svg xmlns="http://www.w3.org/2000/svg" width="148" height="33" fill="none">
  <path fill="#969FA4" d="M49.2 26.3a9 9 0 0 1-8.3-4.8c-.8-1.5-1.2-3.3-1.2-5.3s.4-3.7 1.2-5.2a9 9 0 0 1 3.3-3.5c1.5-.9 3.1-1.3 5-1.3s3.5.4 5 1.3a9 9 0 0 1 3.2 3.5 11 11 0 0 1 1.2 5.2c0 2-.4 3.8-1.2 5.3a8.8 8.8 0 0 1-8.2 4.8Zm0-3.2c1.8 0 3.2-.6 4.3-1.8a8 8 0 0 0 1.6-5c0-2.2-.5-3.9-1.6-5a5.4 5.4 0 0 0-4.3-2c-1.8 0-3.2.7-4.3 2a7.3 7.3 0 0 0-1.6 5c0 2 .5 3.7 1.6 5 1 1.2 2.5 1.8 4.3 1.8ZM61.6 32V12.3h3l.4 2c.5-.7 1-1.2 1.7-1.7a5 5 0 0 1 2.8-.7c1.3 0 2.4.4 3.4 1s1.7 1.5 2.3 2.6c.6 1 .9 2.3.9 3.7 0 1.4-.3 2.6-.9 3.7-.6 1.1-1.3 2-2.3 2.6-1 .6-2.1.9-3.4.9-1 0-1.9-.2-2.6-.6a6 6 0 0 1-1.9-1.6v8h-3.4Zm7.2-8.8c1 0 2-.4 2.7-1.1.7-.8 1-1.8 1-3s-.3-2.2-1-3a3.5 3.5 0 0 0-2.7-1.1c-1.1 0-2 .4-2.8 1.1-.7.8-1 1.8-1 3s.3 2.2 1 3a4 4 0 0 0 2.8 1ZM84.6 26a5 5 0 0 1-3.4-1c-.8-.8-1.2-2-1.2-3.8v-6h-2.3v-3H80l.4-3.7h3v3.7H87v3h-3.6v6c0 .7.1 1.1.4 1.4.3.2.8.3 1.5.3h1.6v3h-2.3Zm7.2-16c-.6 0-1.1-.2-1.5-.5a2 2 0 0 1-.6-1.5c0-.6.2-1 .6-1.5.4-.3 1-.5 1.5-.5.7 0 1.2.2 1.6.5.4.4.6.9.6 1.5s-.2 1-.6 1.5c-.4.3-1 .5-1.6.5Zm-1.7 16V12.2h3.5V26H90Zm7.1 0V12.2h3l.3 1.8c.4-.6 1-1.2 1.7-1.5a5 5 0 0 1 2.5-.7c2 0 3.5.9 4.4 2.5a5.6 5.6 0 0 1 4.6-2.5 5 5 0 0 1 4 1.7c1 1 1.4 2.6 1.4 4.7V26h-3.4v-7.5c0-1.2-.2-2-.7-2.7-.4-.6-1.1-1-2-1-1 0-1.7.4-2.3 1.1-.5.7-.8 1.7-.8 3v7h-3.5v-7.4c0-1.2-.2-2-.6-2.7-.5-.6-1.2-1-2.1-1-1 0-1.7.4-2.2 1.1-.6.7-.9 1.7-.9 3v7h-3.4Zm31.7.3a6.4 6.4 0 0 1-6-3.4 8.2 8.2 0 0 1 0-7.5 6.5 6.5 0 0 1 6-3.6 6 6 0 0 1 3.5 1c1 .5 1.8 1.3 2.3 2.4a6.8 6.8 0 0 1 .9 4v.7h-10.2c0 1.1.4 2 1 2.6.7.6 1.5.9 2.5.9a3 3 0 0 0 1.7-.5 3 3 0 0 0 1.1-1.3h3.5c-.3 1-.7 1.7-1.3 2.4-.5.7-1.3 1.3-2.1 1.7a7 7 0 0 1-3 .6Zm0-11.6c-.8 0-1.6.3-2.2.8-.7.5-1 1.2-1.3 2.2h6.7a3 3 0 0 0-1-2.2c-.6-.5-1.3-.8-2.2-.8Zm9.6 11.3V12.2h3l.4 2.6c.5-1 1.1-1.6 2-2.1.8-.6 1.8-.9 3-.9v3.8h-1a4 4 0 0 0-2 .4c-.7.2-1.1.6-1.5 1.2-.3.6-.4 1.4-.4 2.5V26h-3.5Z"/>
  <path fill="#969FA4" fill-opacity=".8" d="m29.9 8.3-18 19c-.2 0-.4 0-.4-.2l.1-9.3.1-.1 18-9.7c.2 0 .3.2.2.3Z"/>
  <path fill="#969FA4" d="m30.8 6.8-.3.4-20.5 11-7.5-4.9c-.2-.1-.1-.4 0-.4l28.3-6Z"/>
  <path fill="#969FA4" fill-rule="evenodd" d="M31 6.6c.2.1.2.3 0 .4l-.2.4-.1.1-20.5 11.1h-.4l-7.5-5c-.4-.3-.3-1 .2-1.1l28.2-6 .4.1ZM3 13.2l7 4.6L29 7.6 3 13.2Z" clip-rule="evenodd"/>
  <path fill="url(#a)" fill-rule="evenodd" d="M31.1 7c0-.2 0-.4-.2-.5l-.4.1-.2.3L9.7 18.2l-.2.4 1.6 8.4c0 .2.2.3.4.3.1 0 .3 0 .3-.2l2.5-6.3 16.5-13 .1-.3.2-.6Z" clip-rule="evenodd"/>
  <path fill="#969FA4" d="m30.8 6.8-6.2 20c0 .2-.2.3-.4.2l-8-5-1.7-1.2L30.3 7.5l.4-.6Z"/>
  <path fill="#969FA4" fill-rule="evenodd" d="M31 6.5s.2.3.1.4L25 27c0 .4-.5.6-.9.4l-8-5-1.7-1.2a.4.4 0 0 1 0-.6L30 7.2l.4-.5c.1-.2.3-.3.5-.2Zm-1 1.8L15 20.8l1.3.8 7.9 5 5.6-18.3Z" clip-rule="evenodd"/>
  <defs>
    <linearGradient id="a" x1="24.4" x2="11.9" y1="3.3" y2="30.4" gradientUnits="userSpaceOnUse">
      <stop offset="0" stop-color="#ABB3B7"/>
      <stop offset="1" stop-color="#BBD3DF"/>
    </linearGradient>
  </defs>
</svg>
